static/images/icons/portfolio.svg

<svg enable-background="new 0 0 32 32" height="100" viewBox="0 0 32 32" width="100" xmlns="http://www.w3.org/2000/svg"><path d="m.005 9.266h7.174l-3.587-6.199z"/><path d="m8.281 9.266h7.174l-3.587-6.199z"/><path d="m16.556 9.266h7.174l-3.587-6.199z"/><path d="m24.831 9.266h7.174l-3.587-6.199z"/><path d="m.005 19.099h7.174l-3.587-6.199z"/><path d="m8.281 19.099h7.174l-3.587-6.199z"/><path d="m16.556 19.099h7.174l-3.587-6.199z"/><path d="m24.831 19.099h7.174l-3.587-6.199z"/><path d="m.005 28.933h7.174l-3.587-6.199z"/><path d="m8.281 28.933h7.174l-3.587-6.199z"/><path d="m16.556 28.933h7.174l-3.587-6.199z"/><path d="m24.831 28.933h7.174l-3.587-6.199z"/></svg>

<svg height='100px' width='100px'  fill="#000000" xmlns="http://www.w3.org/2000/svg" xmlns:xlink="http://www.w3.org/1999/xlink" version="1.1" x="0px" y="0px" viewBox="0 0 32 32" enable-background="new 0 0 32 32" xml:space="preserve"><g display="none"><rect x="-289.328" y="-186.667" display="inline" fill="#000000" width="473.333" height="236"></rect></g><g display="none"><g display="inline"><g><g><polygon fill="#000000" points="3.592,3.067 7.179,9.266 0.005,9.266     "></polygon></g><g><polygon points="11.868,3.067 15.455,9.266 8.281,9.266     "></polygon></g><g><polygon fill="#000000" points="20.143,3.067 23.73,9.266 16.556,9.266     "></polygon></g><g><polygon points="28.418,3.067 32.005,9.266 24.831,9.266     "></polygon></g></g><g><g><polygon points="3.592,12.9 7.179,19.1 0.005,19.1     "></polygon></g><g><polygon fill="#000000" points="11.868,12.9 15.455,19.1 8.281,19.1     "></polygon></g><g><polygon points="20.143,12.9 23.73,19.1 16.556,19.1     "></polygon></g><g><polygon fill="#000000" points="28.418,12.9 32.005,19.1 24.831,19.1     "></polygon></g></g><g><g><polygon fill="#000000" points="3.592,22.734 7.179,28.933 0.005,28.933     "></polygon></g><g><polygon points="11.868,22.734 15.455,28.933 8.281,28.933     "></polygon></g><g><polygon fill="#000000" points="20.143,22.734 23.73,28.933 16.556,28.933     "></polygon></g><g><polygon points="28.418,22.734 32.005,28.933 24.831,28.933     "></polygon></g></g></g></g><g display="none"><g display="inline"><path fill="#000000" d="M3.592,5.064l1.853,3.202H1.739L3.592,5.064 M3.592,3.067L0.005,9.266h7.174L3.592,3.067L3.592,3.067z"></path></g><g display="inline"><path fill="#000000" d="M11.868,5.064l1.853,3.202h-3.706L11.868,5.064 M11.868,3.067L8.281,9.266h7.174L11.868,3.067    L11.868,3.067z"></path></g><g display="inline"><path fill="#000000" d="M20.143,5.064l1.853,3.202H18.29L20.143,5.064 M20.143,3.067l-3.587,6.199h7.174L20.143,3.067    L20.143,3.067z"></path></g><g display="inline"><path fill="#000000" d="M28.418,5.064l1.853,3.202h-3.706L28.418,5.064 M28.418,3.067l-3.587,6.199h7.174L28.418,3.067    L28.418,3.067z"></path></g><g display="inline"><path fill="#000000" d="M3.592,14.897L5.445,18.1H1.739L3.592,14.897 M3.592,12.9L0.005,19.1h7.174L3.592,12.9L3.592,12.9z"></path></g><g display="inline"><path fill="#000000" d="M11.868,14.897l1.853,3.202h-3.706L11.868,14.897 M11.868,12.9L8.281,19.1h7.174L11.868,12.9L11.868,12.9z    "></path></g><g display="inline"><path fill="#000000" d="M20.143,14.897l1.853,3.202H18.29L20.143,14.897 M20.143,12.9L16.556,19.1h7.174L20.143,12.9L20.143,12.9z    "></path></g><g display="inline"><path fill="#000000" d="M28.418,14.897l1.853,3.202h-3.706L28.418,14.897 M28.418,12.9L24.831,19.1h7.174L28.418,12.9L28.418,12.9    z"></path></g><g display="inline"><path fill="#000000" d="M3.592,24.73l1.853,3.202H1.739L3.592,24.73 M3.592,22.734l-3.587,6.199h7.174L3.592,22.734L3.592,22.734z    "></path></g><g display="inline"><path fill="#000000" d="M11.868,24.73l1.853,3.202h-3.706L11.868,24.73 M11.868,22.734l-3.587,6.199h7.174L11.868,22.734    L11.868,22.734z"></path></g><g display="inline"><path fill="#000000" d="M20.143,24.73l1.853,3.202H18.29L20.143,24.73 M20.143,22.734l-3.587,6.199h7.174L20.143,22.734    L20.143,22.734z"></path></g><g display="inline"><path fill="#000000" d="M28.418,24.73l1.853,3.202h-3.706L28.418,24.73 M28.418,22.734l-3.587,6.199h7.174L28.418,22.734    L28.418,22.734z"></path></g></g><g display="none"><g display="inline"><circle fill="#000000" cx="16" cy="16" r="16"></circle></g><g display="inline"><g><polygon fill="#000000" points="0.872,8.767 3.592,4.065 6.312,8.767    "></polygon></g><g><path d="M3.592,5.064l1.853,3.202H1.739L3.592,5.064 M3.592,3.067L0.005,9.266h7.174L3.592,3.067L3.592,3.067z"></path></g></g><g display="inline"><g><polygon fill="#000000" points="9.148,8.767 11.868,4.065 14.587,8.767    "></polygon></g><g><path d="M11.868,5.064l1.853,3.202h-3.706L11.868,5.064 M11.868,3.067L8.281,9.266h7.174L11.868,3.067L11.868,3.067z"></path></g></g><g display="inline"><g><polygon fill="#000000" points="17.423,8.767 20.143,4.065 22.863,8.767    "></polygon></g><g><path d="M20.143,5.064l1.853,3.202H18.29L20.143,5.064 M20.143,3.067l-3.587,6.199h7.174L20.143,3.067L20.143,3.067z"></path></g></g><g display="inline"><g><polygon fill="#000000" points="25.699,8.767 28.418,4.065 31.138,8.767    "></polygon></g><g><path d="M28.418,5.064l1.853,3.202h-3.706L28.418,5.064 M28.418,3.067l-3.587,6.199h7.174L28.418,3.067L28.418,3.067z"></path></g></g><g display="inline"><g><polygon fill="#000000" points="0.872,18.6 3.592,13.898 6.312,18.6    "></polygon></g><g><path d="M3.592,14.897L5.445,18.1H1.739L3.592,14.897 M3.592,12.9L0.005,19.1h7.174L3.592,12.9L3.592,12.9z"></path></g></g><g display="inline"><g><polygon fill="#000000" points="9.148,18.6 11.868,13.898 14.587,18.6    "></polygon></g><g><path d="M11.868,14.897l1.853,3.202h-3.706L11.868,14.897 M11.868,12.9L8.281,19.1h7.174L11.868,12.9L11.868,12.9z"></path></g></g><g display="inline"><g><polygon fill="#000000" points="17.423,18.6 20.143,13.898 22.863,18.6    "></polygon></g><g><path d="M20.143,14.897l1.853,3.202H18.29L20.143,14.897 M20.143,12.9L16.556,19.1h7.174L20.143,12.9L20.143,12.9z"></path></g></g><g display="inline"><g><polygon fill="#000000" points="25.699,18.6 28.418,13.898 31.138,18.6    "></polygon></g><g><path d="M28.418,14.897l1.853,3.202h-3.706L28.418,14.897 M28.418,12.9L24.831,19.1h7.174L28.418,12.9L28.418,12.9z"></path></g></g><g display="inline"><g><polygon fill="#000000" points="0.872,28.433 3.592,23.731 6.312,28.433    "></polygon></g><g><path d="M3.592,24.73l1.853,3.202H1.739L3.592,24.73 M3.592,22.734l-3.587,6.199h7.174L3.592,22.734L3.592,22.734z"></path></g></g><g display="inline"><g><polygon fill="#000000" points="9.148,28.433 11.868,23.731 14.587,28.433    "></polygon></g><g><path d="M11.868,24.73l1.853,3.202h-3.706L11.868,24.73 M11.868,22.734l-3.587,6.199h7.174L11.868,22.734L11.868,22.734z"></path></g></g><g display="inline"><g><polygon fill="#000000" points="17.423,28.433 20.143,23.731 22.863,28.433    "></polygon></g><g><path d="M20.143,24.73l1.853,3.202H18.29L20.143,24.73 M20.143,22.734l-3.587,6.199h7.174L20.143,22.734L20.143,22.734z"></path></g></g><g display="inline"><g><polygon fill="#000000" points="25.699,28.433 28.418,23.731 31.138,28.433    "></polygon></g><g><path d="M28.418,24.73l1.853,3.202h-3.706L28.418,24.73 M28.418,22.734l-3.587,6.199h7.174L28.418,22.734L28.418,22.734z"></path></g></g></g><g><g><polygon points="0.005,9.266 7.179,9.266 3.592,3.067   "></polygon><polygon points="8.281,9.266 15.455,9.266 11.868,3.067   "></polygon><polygon points="16.556,9.266 23.73,9.266 20.143,3.067   "></polygon><polygon points="24.831,9.266 32.005,9.266 28.418,3.067   "></polygon><polygon points="0.005,19.099 7.179,19.099 3.592,12.9   "></polygon><polygon points="8.281,19.099 15.455,19.099 11.868,12.9   "></polygon><polygon points="16.556,19.099 23.73,19.099 20.143,12.9   "></polygon><polygon points="24.831,19.099 32.005,19.099 28.418,12.9   "></polygon><polygon points="0.005,28.933 7.179,28.933 3.592,22.734   "></polygon><polygon points="8.281,28.933 15.455,28.933 11.868,22.734   "></polygon><polygon points="16.556,28.933 23.73,28.933 20.143,22.734   "></polygon><polygon points="24.831,28.933 32.005,28.933 28.418,22.734   "></polygon></g></g></svg>
